assets/icons/qvision/camera_roll.svg

<svg xmlns="http://www.w3.org/2000/svg" height="24" viewBox="0 0 24 24" width="24"><path d="M0 0h24v24H0z" fill="none"/><path d="M14 5c0-1.1-.9-2-2-2h-1V2c0-.55-.45-1-1-1H6c-.55 0-1 .45-1 1v1H4c-1.1 0-2 .9-2 2v15c0 1.1.9 2 2 2h8c1.1 0 2-.9 2-2h8V5h-8zm-2 13h-2v-2h2v2zm0-9h-2V7h2v2zm4 9h-2v-2h2v2zm0-9h-2V7h2v2zm4 9h-2v-2h2v2zm0-9h-2V7h2v2z"/></svg>

<svg width="24" height="24" viewBox="0 0 24 24" fill="none" xmlns="http://www.w3.org/2000/svg">
<g clip-path="url(#clip0_147_3286)">
<path d="M14 5C14 3.9 13.1 3 12 3H11V2C11 1.45 10.55 1 10 1H6C5.45 1 5 1.45 5 2V3H4C2.9 3 2 3.9 2 5V20C2 21.1 2.9 22 4 22H12C13.1 22 14 21.1 14 20H22V5H14ZM12 18H10V16H12V18ZM12 9H10V7H12V9ZM16 18H14V16H16V18ZM16 9H14V7H16V9ZM20 18H18V16H20V18ZM20 9H18V7H20V9Z" fill="#323232"/>
</g>
<defs>
<clipPath id="clip0_147_3286">
<rect width="24" height="24" fill="white"/>
</clipPath>
</defs>
</svg>
